src/Pure/16/symbolic/actions/qrscanner-symbolic.svg

<svg xmlns="http://www.w3.org/2000/svg" width="16" height="16" version="1"><path d="M1 1v5h5V1H1zm9 0v5h5V1h-5zM2 2h3v3H2V2zm5 0v2h1v1h1V3H8V2H7zm1 3H7v2h1V5zM7 7H6v1H5v1h2V7zm0 2v1h1V9H7zm1 0h3V7h-1v1H8v1zm3 0v1h1v1h1V9h-2zm0 1h-1v1h1v-1zm-1 1H8v1h2v-1zm0 1v1h1v-1h-1zm1 1v1h1v-1h-1zm1 0h2v-1h-2v1zm2 0v2h1v-2h-1zm-2 1v1h1v-1h-1zm-1 0H7v1h4v-1zm-3-2H7v1h1v-1zM5 8V7H3v1h2zM3 8H2V7H1v2h2V8zm8-6h3v3h-3V2zM3 3v1h1V3H3zm9 0v1h1V3h-1zm0 4v1h2v1h1V7h-3zM1 10v5h5v-5H1zm13 0v1h1v-1h-1zM2 11h3v3H2v-3zm1 1v1h1v-1H3z" fill="#363636"/></svg>

<?xml version="1.0" encoding="UTF-8" standalone="no"?>
<svg
   width="16"
   height="16"
   version="1"
   id="svg1"
   sodipodi:docname="qrscanner-symbolic.svg"
   inkscape:version="1.4.2 (ebf0e940d0, 2025-05-08)"
   xmlns:inkscape="http://www.inkscape.org/namespaces/inkscape"
   xmlns:sodipodi="http://sodipodi.sourceforge.net/DTD/sodipodi-0.dtd"
   xmlns="http://www.w3.org/2000/svg"
   xmlns:svg="http://www.w3.org/2000/svg">
  <defs
     id="defs1">
     <style
        id="current-color-scheme"
        type="text/css">
        .ColorScheme-Text { color:#363636; }
     </style>
  </defs>
  <sodipodi:namedview
     id="namedview1"
     pagecolor="#ffffff"
     bordercolor="#000000"
     borderopacity="0.25"
     inkscape:showpageshadow="2"
     inkscape:pageopacity="0.0"
     inkscape:pagecheckerboard="0"
     inkscape:deskcolor="#d1d1d1"
     inkscape:zoom="49.6875"
     inkscape:cx="8"
     inkscape:cy="8"
     inkscape:window-width="1920"
     inkscape:window-height="1010"
     inkscape:window-x="0"
     inkscape:window-y="0"
     inkscape:window-maximized="1"
     inkscape:current-layer="svg1" />
  <path
     id="path1"
     style="fill:currentColor"
     class="ColorScheme-Text"
     d="M 1 1 L 1 6 L 6 6 L 6 1 L 1 1 z M 10 1 L 10 6 L 15 6 L 15 1 L 10 1 z M 2 2 L 5 2 L 5 5 L 2 5 L 2 2 z M 7 2 L 7 4 L 8 4 L 8 5 L 9 5 L 9 3 L 8 3 L 8 2 L 7 2 z M 8 5 L 7 5 L 7 7 L 8 7 L 8 5 z M 7 7 L 6 7 L 6 8 L 5 8 L 5 9 L 7 9 L 7 7 z M 7 9 L 7 10 L 8 10 L 8 9 L 7 9 z M 8 9 L 11 9 L 11 7 L 10 7 L 10 8 L 8 8 L 8 9 z M 11 9 L 11 10 L 12 10 L 12 11 L 13 11 L 13 9 L 11 9 z M 11 10 L 10 10 L 10 11 L 11 11 L 11 10 z M 10 11 L 8 11 L 8 12 L 10 12 L 10 11 z M 10 12 L 10 13 L 11 13 L 11 12 L 10 12 z M 11 13 L 11 14 L 12 14 L 12 13 L 11 13 z M 12 13 L 14 13 L 14 12 L 12 12 L 12 13 z M 14 13 L 14 15 L 15 15 L 15 13 L 14 13 z M 12 14 L 12 15 L 13 15 L 13 14 L 12 14 z M 11 14 L 7 14 L 7 15 L 11 15 L 11 14 z M 8 12 L 7 12 L 7 13 L 8 13 L 8 12 z M 5 8 L 5 7 L 3 7 L 3 8 L 5 8 z M 3 8 L 2 8 L 2 7 L 1 7 L 1 9 L 3 9 L 3 8 z M 11 2 L 14 2 L 14 5 L 11 5 L 11 2 z M 3 3 L 3 4 L 4 4 L 4 3 L 3 3 z M 12 3 L 12 4 L 13 4 L 13 3 L 12 3 z M 12 7 L 12 8 L 14 8 L 14 9 L 15 9 L 15 7 L 12 7 z M 1 10 L 1 15 L 6 15 L 6 10 L 1 10 z M 14 10 L 14 11 L 15 11 L 15 10 L 14 10 z M 2 11 L 5 11 L 5 14 L 2 14 L 2 11 z M 3 12 L 3 13 L 4 13 L 4 12 L 3 12 z " />
</svg>
